src/lib/packages/icons/src/assets/filled/location-pin-plus.svg

<svg xmlns="http://www.w3.org/2000/svg" width="24" height="24" fill="none"><path fill="currentColor" d="M12 2.5c-4.687 0-8.5 3.813-8.5 8.5 0 4.983 4.629 8.041 7.692 10.064l.53.352a.5.5 0 0 0 .554 0l.53-.352c3.063-2.023 7.692-5.081 7.692-10.064C20.5 6.313 16.687 2.5 12 2.5Zm2.5 9.25h-1.75v1.75a.75.75 0 0 1-1.5 0v-1.75H9.5a.75.75 0 0 1 0-1.5h1.75V8.5a.75.75 0 0 1 1.5 0v1.75h1.75a.75.75 0 0 1 0 1.5Z"/></svg>

<svg width="24" height="24" viewBox="0 0 24 24" fill="none" xmlns="http://www.w3.org/2000/svg">
<path d="M12 2.5C7.313 2.5 3.5 6.313 3.5 11C3.5 15.983 8.129 19.041 11.192 21.064L11.722 21.416C11.806 21.472 11.903 21.5 11.999 21.5C12.095 21.5 12.192 21.472 12.276 21.416L12.806 21.064C15.869 19.041 20.498 15.983 20.498 11C20.5 6.313 16.687 2.5 12 2.5ZM14.5 11.75H12.75V13.5C12.75 13.914 12.414 14.25 12 14.25C11.586 14.25 11.25 13.914 11.25 13.5V11.75H9.5C9.086 11.75 8.75 11.414 8.75 11C8.75 10.586 9.086 10.25 9.5 10.25H11.25V8.5C11.25 8.086 11.586 7.75 12 7.75C12.414 7.75 12.75 8.086 12.75 8.5V10.25H14.5C14.914 10.25 15.25 10.586 15.25 11C15.25 11.414 14.914 11.75 14.5 11.75Z" fill="currentColor"/>
</svg>
